X: 2122
T: WHA' WIDNA FECHT FOR CHARLIE
C:
Q: "Strathspey."
R: Strathspey.
%R: strathspey
B: James Kerr "Merry Melodies" v.2 p.15 #122
Z: 2016 John Chambers <jc:trillian.mit.edu>
M: C
L: 1/8
K: G
uD |\
vG<GG>uA vB>vA (B<d) | G<GG>c (B<d) (A>B) |\
vG<GG>uA vB>vA (B<d) | e>gd>g B>g A :|
|: uc |\
(B<d) (de/f/) g>de>d | (B<d) (de/f/) g>B A2 |\
B<d (de/f/) g>de>d | e<g d<g B<g A :|
